X: 1
T: the Nameless Lassie
C: William Marshall
R: air
Q: "Slow Air"
Z: 2014 John Chambers <jc:trillian.mit.edu>
S: page from Concord Slow Scottish Session collection
N: "SRSNH 12/92  4.13" at top
N: "J.Tappan" at lower right
N: Harmony by Stacey Tappan
M: C
L: 1/8
K: G
% - - - - - - - - - - - - - - - - - - - - - - - - -
"A"[|] D2 |\
"G"(G3F) "C"(E2"G"D2) | "C"(E2F2) "G"(G3"D7"A) |\
"G"({GA}B3G) "C"(c3B) | "D7"(B3A) (A2D2) ||\
"G"(G3F) "C"(E2"G"D2) | "C"(E2F2) "G"G2"D7"dc |
"G"(B3c) "D7"(A3G) | "G"G6 "B"|[| G2 |\
"G"(d3G) G2-G2 | "C"({G}e3"G"d) "Am"(c2"G"B2) |\
"C"(c2"G"B2) "Am"(A2"C"G2) | "D"F2A2 Hd2D2 ||\
"G"(G3F) "C"(E2"G"D2) |
"C"(E2F2) "G"(G3"D7"A) |\
"G"({GA}B3G) "C"(c3B) | "D7"(B4 A2)G2 ||\
"G"(d3G) G2-G2 | "C"({G}e3"G"d) "Am"(c3"G"B) |\
"D7"(A3E) ({E}F3D) | "G"G6 |]
%%text The A part may be repeated.
